;START_OF_HEADER
;HEADER_VERSION:0.1
;FLAVOR:Griffin
;GENERATOR.NAME:Cura_SteamEngine
;GENERATOR.VERSION:5.10.2
;GENERATOR.BUILD_DATE:2025-07-28
;TARGET_MACHINE.NAME:Ultimaker 3 Extended
;EXTRUDER_TRAIN.0.INITIAL_TEMPERATURE:205
;EXTRUDER_TRAIN.0.MATERIAL.VOLUME_USED:25146
;EXTRUDER_TRAIN.0.MATERIAL.GUID:506c9f0d-e3aa-4bd4-b2d2-23e2425b1aa9
;EXTRUDER_TRAIN.0.NOZZLE.DIAMETER:0.4
;EXTRUDER_TRAIN.0.NOZZLE.NAME:AA 0.4
;BUILD_PLATE.INITIAL_TEMPERATURE:60
;PRINT.TIME:9287
;PRINT.GROUPS:1
;PRINT.SIZE.MIN.X:9
;PRINT.SIZE.MIN.Y:6
;PRINT.SIZE.MIN.Z:0.2
;PRINT.SIZE.MAX.X:193.48
;PRINT.SIZE.MAX.Y:149.48
;PRINT.SIZE.MAX.Z:22
;SLICE_UUID:061ce0f4-c28c-438e-9392-abe03ad05e59
;END_OF_HEADER
;Generated with Cura_SteamEngine 5.10.2
T0

M82 ;absolute extrusion mode
G92 E0
M190 S60
M104 S205
M109 S205
G0 F15000 X9 Y6 Z2
G280
G1 F1500 E-6.5
;LAYER_COUNT:110
;LAYER:0
M106 S255
M204 S1000
M205 X20 Y20
G1 F600 Z2.2
G0 F15000 X44.828 Y67.513 Z2.2
;TYPE:SKIRT
G1 F600 Z0.2
G1 F1500 E0
G1 F1800 X46.877 Y66.414 E0.02916
G1 X49.229 Y65.712 E0.05994
G1 X51.502 Y65.52 E0.08854
G1 X181.6 Y65.523 E1.72002
G1 X183.809 Y65.713 E1.74783
G1 X186.128 Y66.411 E1.7782
G1 X188.233 Y67.551 E1.80822
G1 X190.001 Y69.009 E1.83695
G1 X191.481 Y70.82 E1.86628
G1 X192.589 Y72.886 E1.89568
G1 X193.288 Y75.227 E1.92632
G1 X193.478 Y77.432 E1.95407
G1 X193.48 Y96.629 E2.19481
G1 X192.932 Y98.486 E2.21909
G1 X192.483 Y99.284 E2.23057
G1 X190.911 Y100.902 E2.25886
G1 X189.36 Y101.874 E2.28182
G1 X187.306 Y102.48 E2.30867
G1 X182.18 Y102.48 E2.37296
G1 X182.158 Y103.013 E2.37965
G1 X181.432 Y105.126 E2.40766
G1 X181.13 Y105.531 E2.414
G1 X181.402 Y105.922 E2.41997
G1 X182.144 Y108.298 E2.45119
G1 X182.166 Y108.52 E2.45398
G1 X187.625 Y108.52 E2.52244
G1 X189.577 Y109.097 E2.54797
G1 X190.2 Y109.445 E2.55692
G1 X191.889 Y111.073 E2.58634
G1 X192.87 Y112.628 E2.60939
G1 X193.48 Y114.694 E2.63641
G1 X193.445 Y138.181 E2.93094
G1 X193.281 Y139.868 E2.9522
G1 X192.616 Y142.051 E2.98082
G1 X191.433 Y144.249 E3.01212
G1 X189.977 Y146.013 E3.0408
G1 X188.172 Y147.487 E3.07002
G1 X186.123 Y148.586 E3.09918
G1 X183.771 Y149.288 E3.12996
G1 X181.498 Y149.48 E3.15857
G1 X50.819 Y149.445 E4.79733
G1 X49.157 Y149.281 E4.81828
G1 X46.892 Y148.587 E4.84798
G1 X44.772 Y147.448 E4.87816
G1 X43.009 Y145.995 E4.90681
G1 X41.532 Y144.204 E4.93592
G1 X40.399 Y142.078 E4.96613
G1 X39.712 Y139.769 E4.99635
G1 X39.52 Y137.5 E5.0249
G1 X39.555 Y76.819 E5.78586
G1 X39.719 Y75.13 E5.80714
G1 X40.398 Y72.904 E5.83633
G1 X41.556 Y70.756 E5.86693
G1 X43 Y69.005 E5.89539
G1 X44.828 Y67.513 E5.92498
G0 F15000 X45.05 Y67.848
G1 F1800 X47.034 Y66.784 E5.95321
G1 X49.3 Y66.108 E5.98287
G1 X51.502 Y65.92 E6.01058
G1 X181.566 Y65.922 E7.64163
G1 X183.736 Y66.109 E7.66895
G1 X185.973 Y66.782 E7.69824
G1 X188.006 Y67.883 E7.72723
G1 X189.718 Y69.295 E7.75506
G1 X191.149 Y71.046 E7.78342
G1 X192.218 Y73.039 E7.81178
G1 X192.892 Y75.298 E7.84135
G1 X193.079 Y77.466 E7.86863
G1 X193.08 Y96.57 E8.10821
G1 X192.561 Y98.329 E8.1312
G1 X192.16 Y99.042 E8.14146
G1 X190.656 Y100.59 E8.16853
G1 X189.196 Y101.505 E8.19014
G1 X187.247 Y102.08 E8.21562
G1 X181.78 Y102.08 E8.28418
G1 X181.78 Y102.883 E8.29425
G1 X181.054 Y104.996 E8.32227
G1 X180.617 Y105.523 E8.33085
G1 X181.02 Y106.041 E8.33908
G1 X181.762 Y108.417 E8.3703
G1 X181.78 Y108.92 E8.37661
G1 X187.566 Y108.92 E8.44917
G1 X189.464 Y109.481 E8.47399
G1 X189.959 Y109.769 E8.48117
G1 X191.579 Y111.33 E8.50938
G1 X192.501 Y112.792 E8.53106
G1 X193.08 Y114.753 E8.5567
G1 X193.047 Y138.142 E8.85
G1 X192.887 Y139.787 E8.87073
G1 X192.243 Y141.901 E8.89844
G1 X191.101 Y144.024 E8.92867
G1 X189.695 Y145.727 E8.95637
G1 X187.95 Y147.152 E8.98462
G1 X185.966 Y148.216 E9.01285
G1 X183.7 Y148.892 E9.04251
G1 X181.498 Y149.08 E9.07022
G1 X50.858 Y149.047 E10.70849
G1 X49.234 Y148.887 E10.72896
G1 X47.047 Y148.217 E10.75764
G1 X44.998 Y147.116 E10.78681
G1 X43.296 Y145.713 E10.81447
G1 X41.864 Y143.977 E10.84269
G1 X40.77 Y141.924 E10.87187
G1 X40.108 Y139.698 E10.90099
G1 X39.92 Y137.5 E10.92865
G1 X39.953 Y76.858 E11.68913
G1 X40.113 Y75.211 E11.70988
G1 X40.77 Y73.057 E11.73812
G1 X41.888 Y70.983 E11.76767
G1 X43.286 Y69.288 E11.79522
G1 X45.05 Y67.848 E11.82377
G0 F15000 X45.272 Y68.183
G1 F1800 X47.191 Y67.154 E11.85108
G1 X49.371 Y66.504 E11.87961
G1 X51.502 Y66.32 E11.90643
G1 X181.532 Y66.321 E13.53706
G1 X183.663 Y66.505 E13.56388
G1 X185.818 Y67.153 E13.5921
G1 X187.779 Y68.215 E13.62007
G1 X189.435 Y69.581 E13.64699
G1 X190.814 Y71.268 E13.67431
G1 X191.848 Y73.196 E13.70175
G1 X192.496 Y75.369 E13.73018
G1 X192.68 Y77.5 E13.757
G1 X192.68 Y96.511 E13.99541
G1 X192.19 Y98.172 E14.01713
G1 X191.837 Y98.8 E14.02616
G1 X190.401 Y100.278 E14.052
G1 X189.032 Y101.136 E14.07226
G1 X187.188 Y101.68 E14.09637
G1 X181.38 Y101.68 E14.16921
G1 X181.38 Y102.817 E14.18347
G1 X180.676 Y104.866 E14.21064
G1 X180.08 Y105.515 E14.22169
G1 X180.638 Y106.16 E14.23238
G1 X181.38 Y108.536 E14.2636
G1 X181.38 Y109.32 E14.27343
G1 X187.507 Y109.32 E14.35026
G1 X189.351 Y109.865 E14.37438
G1 X189.681 Y110.057 E14.37916
G1 X191.269 Y111.587 E14.40682
G1 X192.132 Y112.956 E14.42711
G1 X192.68 Y114.812 E14.45138
G1 X192.649 Y138.103 E14.74346
G1 X192.493 Y139.706 E14.76365
G1 X191.87 Y141.751 E14.79046
G1 X190.769 Y143.799 E14.81962
G1 X189.413 Y145.441 E14.84633
G1 X187.728 Y146.817 E14.87361
G1 X185.809 Y147.846 E14.90091
G1 X183.629 Y148.496 E14.92944
G1 X181.498 Y148.68 E14.95626
G1 X50.897 Y148.649 E16.59405
G1 X49.311 Y148.493 E16.61403
G1 X47.202 Y147.847 E16.6417
G1 X45.224 Y146.784 E16.66986
G1 X43.58 Y145.429 E16.69657
G1 X42.198 Y143.753 E16.72381
G1 X41.141 Y141.77 E16.75199
G1 X40.504 Y139.627 E16.78003
G1 X40.32 Y137.5 E16.8068
G1 X40.351 Y76.897 E17.56679
G1 X40.507 Y75.292 E17.58701
G1 X41.142 Y73.21 E17.6143
G1 X42.22 Y71.21 E17.6428
G1 X43.572 Y69.571 E17.66944
G1 X45.272 Y68.183 E17.69696
G0 F15000 X45.494 Y68.518
G1 F1800 X47.348 Y67.524 E17.72334
G1 X49.446 Y66.899 E17.7508
G1 X51.502 Y66.72 E17.77668
G1 X181.498 Y66.72 E19.40687
G1 X183.59 Y66.901 E19.43321
G1 X185.663 Y67.524 E19.46035
G1 X187.552 Y68.547 E19.48729
G1 X189.152 Y69.867 E19.5133
G1 X190.482 Y71.494 E19.53966
G1 X191.477 Y73.349 E19.56605
G1 X192.101 Y75.444 E19.59347
G1 X192.28 Y77.5 E19.61935
G1 X192.28 Y96.452 E19.85701
G1 X191.806 Y98.059 E19.87802
G1 X191.515 Y98.557 E19.88526
G1 X190.146 Y99.966 E19.90989
G1 X188.868 Y100.767 E19.92881
G1 X187.129 Y101.28 E19.95154
G1 X180.98 Y101.28 E20.02865
G1 X180.98 Y102.751 E20.0471
G1 X180.325 Y104.657 E20.07237
G1 X179.544 Y105.508 E20.08686
G1 X180.281 Y106.36 E20.10099
G1 X180.98 Y108.597 E20.13038
G1 X180.98 Y109.72 E20.14446
G1 X187.448 Y109.72 E20.22557
G1 X189.238 Y110.249 E20.24898
G1 X189.403 Y110.345 E20.25137
G1 X190.959 Y111.844 E20.27847
G1 X191.763 Y113.12 E20.29738
G1 X192.28 Y114.871 E20.32027
G1 X192.251 Y138.064 E20.61112
G1 X192.099 Y139.625 E20.63079
G1 X191.497 Y141.601 E20.6567
G1 X190.437 Y143.574 E20.68478
G1 X189.131 Y145.155 E20.7105
G1 X187.506 Y146.482 E20.73681
G1 X185.652 Y147.476 E20.76319
G1 X183.554 Y148.101 E20.79064
G1 X181.498 Y148.28 E20.81652
G1 X50.936 Y148.251 E22.45382
G1 X49.388 Y148.099 E22.47332
G1 X47.357 Y147.477 E22.49996
G1 X45.45 Y146.452 E22.52711
G1 X43.867 Y145.147 E22.55284
G1 X42.53 Y143.526 E22.57919
G1 X41.512 Y141.616 E22.60633
G1 X40.899 Y139.552 E22.63333
G1 X40.72 Y137.5 E22.65916
G1 X40.749 Y76.936 E23.41866
G1 X40.901 Y75.373 E23.43835
G1 X41.514 Y73.363 E23.4647
G1 X42.552 Y71.437 E23.49214
G1 X43.858 Y69.854 E23.51787
G1 X45.494 Y68.518 E23.54436
G0 F15000 X45.716 Y68.853
G1 F1800 X47.505 Y67.894 E23.56982
G1 X49.521 Y67.293 E23.5962
G1 X51.502 Y67.12 E23.62113
G1 X181.498 Y67.12 E25.25133
G1 X183.513 Y67.295 E25.2767
G1 X185.508 Y67.895 E25.30282
G1 X187.327 Y68.88 E25.32876
G1 X188.867 Y70.15 E25.35379
G1 X190.147 Y71.716 E25.37916
G1 X191.107 Y73.506 E25.40463
G1 X191.707 Y75.519 E25.43097
G1 X191.88 Y77.5 E25.45591
G1 X191.88 Y96.393 E25.69283
G1 X191.422 Y97.946 E25.71314
G1 X191.228 Y98.278 E25.71796
G1 X189.891 Y99.654 E25.74202
G1 X188.704 Y100.398 E25.75959
G1 X187.07 Y100.88 E25.78095
G1 X180.58 Y100.88 E25.86234
G1 X180.58 Y102.685 E25.88497
G1 X179.974 Y104.448 E25.90835
G1 X179.008 Y105.501 E25.92627
G1 X179.924 Y106.56 E25.94383
G1 X180.58 Y108.658 E25.9714
G1 X180.58 Y110.12 E25.98973
G1 X187.389 Y110.12 E26.07512
G1 X189.125 Y110.633 E26.09782
G1 X190.649 Y112.101 E26.12435
G1 X191.394 Y113.284 E26.14189
G1 X191.88 Y114.93 E26.16341
G1 X191.853 Y138.025 E26.45303
G1 X191.705 Y139.544 E26.47217
G1 X191.124 Y141.451 E26.49717
G1 X190.106 Y143.345 E26.52413
G1 X188.846 Y144.872 E26.54896
G1 X187.284 Y146.147 E26.57424
G1 X185.495 Y147.106 E26.5997
G1 X183.479 Y147.707 E26.62608
G1 X181.498 Y147.88 E26.65102
G1 X50.975 Y147.853 E28.28782
G1 X49.465 Y147.705 E28.30685
G1 X47.512 Y147.107 E28.33246
G1 X45.676 Y146.12 E28.3586
G1 X44.154 Y144.865 E28.38334
G1 X42.862 Y143.299 E28.4088
G1 X41.883 Y141.462 E28.43491
G1 X41.293 Y139.477 E28.46087
G1 X41.12 Y137.5 E28.48576
G1 X41.147 Y76.975 E29.24477
G1 X41.295 Y75.454 E29.26393
G1 X41.886 Y73.516 E29.28934
G1 X42.884 Y71.664 E29.31572
G1 X44.144 Y70.137 E29.34055
G1 X45.716 Y68.853 E29.366
G0 F15000 X45.938 Y69.188
G1 F1800 X47.662 Y68.264 E29.39053
G1 X49.597 Y67.687 E29.41585
G1 X51.502 Y67.52 E29.43983
G1 X181.498 Y67.52 E31.07003
G1 X183.436 Y67.689 E31.09443
G1 X185.353 Y68.266 E31.11953
G1 X187.1 Y69.212 E31.14445
G1 X188.584 Y70.436 E31.16857
G1 X189.812 Y71.938 E31.1929
G1 X190.737 Y73.663 E31.21745
G1 X191.313 Y75.595 E31.24273
G1 X191.48 Y77.5 E31.26671
G1 X191.48 Y96.334 E31.50289
G1 X191.038 Y97.833 E31.52249
G1 X190.941 Y97.999 E31.5249
G1 X189.636 Y99.342 E31.54839
G1 X188.54 Y100.029 E31.56461
G1 X187.011 Y100.48 E31.5846
G1 X180.18 Y100.48 E31.67026
G1 X180.18 Y102.619 E31.69709
G1 X179.623 Y104.239 E31.71857
G1 X178.472 Y105.493 E31.73991
G1 X179.567 Y106.758 E31.76089
G1 X180.18 Y108.719 E31.78666
G1 X180.18 Y110.52 E31.80925
G1 X187.33 Y110.52 E31.89891
G1 X188.918 Y110.989 E31.91967
G1 X190.336 Y112.355 E31.94436
G1 X191.026 Y113.451 E31.96061
G1 X191.48 Y114.989 E31.98072
G1 X191.455 Y137.986 E32.26911
G1 X191.311 Y139.463 E32.28772
G1 X190.751 Y141.301 E32.31181
G1 X189.774 Y143.12 E32.3377
G1 X188.564 Y144.586 E32.36154
G1 X187.062 Y145.812 E32.38586
G1 X185.338 Y146.736 E32.41039
G1 X183.403 Y147.313 E32.43571
G1 X181.498 Y147.48 E32.45969
G1 X51.014 Y147.455 E34.09601
G1 X49.542 Y147.311 E34.11455
G1 X47.667 Y146.737 E34.13914
G1 X45.902 Y145.788 E34.16427
G1 X44.438 Y144.581 E34.18807
G1 X43.196 Y143.075 E34.21255
G1 X42.254 Y141.308 E34.23766
G1 X41.687 Y139.402 E34.2626
G1 X41.52 Y137.5 E34.28654
G1 X41.545 Y77.014 E35.04506
G1 X41.689 Y75.535 E35.06369
G1 X42.258 Y73.669 E35.08816
G1 X43.218 Y71.888 E35.11353
G1 X44.427 Y70.422 E35.13736
G1 X45.938 Y69.188 E35.16182
G0 F15000 X46.16 Y69.523
G1 F1800 X47.819 Y68.634 E35.18542
G1 X49.673 Y68.081 E35.20969
G1 X51.502 Y67.92 E35.23271
G1 X181.498 Y67.92 E36.86291
G1 X183.359 Y68.083 E36.88634
G1 X185.198 Y68.637 E36.91042
G1 X186.873 Y69.544 E36.93431
G1 X188.301 Y70.722 E36.95752
G1 X189.477 Y72.16 E36.98082
G1 X190.367 Y73.82 E37.00444
G1 X190.919 Y75.671 E37.02866
G1 X191.08 Y77.5 E37.05169
G1 X191.08 Y96.275 E37.28713
G1 X190.654 Y97.72 E37.30602
G1 X189.381 Y99.03 E37.32893
G1 X188.376 Y99.66 E37.34381
G1 X186.952 Y100.08 E37.36242
G1 X179.78 Y100.08 E37.45236
G1 X179.78 Y102.553 E37.48338
G1 X179.273 Y104.028 E37.50293
G1 X178.062 Y105.347 E37.52539
G1 X177.908 Y105.452 E37.52773
G1 X179.21 Y106.956 E37.55267
G1 X179.78 Y108.78 E37.57664
G1 X179.78 Y110.92 E37.60347
G1 X187.271 Y110.92 E37.69741
G1 X188.711 Y111.345 E37.71624
G1 X190.023 Y112.609 E37.73909
G1 X190.658 Y113.618 E37.75404
G1 X191.08 Y115.048 E37.77274
G1 X191.057 Y137.947 E38.0599
G1 X190.917 Y139.382 E38.07798
G1 X190.378 Y141.151 E38.10117
G1 X189.443 Y142.891 E38.12594
G1 X188.278 Y144.303 E38.1489
G1 X186.84 Y145.477 E38.17218
G1 X185.181 Y146.366 E38.19578
G1 X183.327 Y146.919 E38.22004
G1 X181.498 Y147.08 E38.24307
G1 X51.053 Y147.057 E39.8789
G1 X49.619 Y146.917 E39.89696
G1 X47.822 Y146.367 E39.92053
G1 X46.128 Y145.456 E39.94465
G1 X44.725 Y144.299 E39.96746
G1 X43.528 Y142.848 E39.99105
G1 X42.625 Y141.154 E40.01512
G1 X42.081 Y139.326 E40.03904
G1 X41.92 Y137.5 E40.06202
G1 X41.943 Y77.053 E40.82005
G1 X42.083 Y75.616 E40.83816
G1 X42.63 Y73.822 E40.86168
G1 X43.55 Y72.115 E40.88599
G1 X44.713 Y70.705 E40.90892
G1 X46.16 Y69.523 E40.93235
G0 F15000 X46.382 Y69.858
G1 F1800 X47.976 Y69.004 E40.95502
G1 X49.749 Y68.475 E40.97823
G1 X51.502 Y68.32 E41.00029
G1 X181.498 Y68.32 E42.63049
G1 X183.281 Y68.477 E42.65294
G1 X185.043 Y69.008 E42.67602
G1 X186.646 Y69.876 E42.69888
G1 X188.018 Y71.008 E42.72118
G1 X189.142 Y72.382 E42.74344
G1 X189.997 Y73.977 E42.76614
G1 X190.525 Y75.747 E42.7893
G1 X190.68 Y77.5 E42.81137
G1 X190.68 Y96.216 E43.04608
G1 X190.298 Y97.512 E43.06302
G1 X189.126 Y98.718 E43.08411
G1 X188.212 Y99.291 E43.09764
G1 X186.893 Y99.68 E43.11488
G1 X179.38 Y99.68 E43.2091
G1 X179.38 Y102.487 E43.2443
G1 X178.923 Y103.817 E43.26193
G1 X177.767 Y105.076 E43.28337
G1 X177.079 Y105.413 E43.29298
G1 X177.558 Y105.658 E43.29972
G1 X178.853 Y107.154 E43.32453
G1 X179.38 Y108.841 E43.3467
G1 X179.38 Y111.32 E43.37779
G1 X187.212 Y111.32 E43.476
G1 X188.504 Y111.701 E43.49289
G1 X189.71 Y112.863 E43.5139
G1 X190.29 Y113.785 E43.52756
G1 X190.68 Y115.107 E43.54484
G1 X190.659 Y137.908 E43.83077
G1 X190.523 Y139.301 E43.84833
G1 X190.005 Y141.001 E43.87061
G1 X189.112 Y142.662 E43.89426
G1 X187.992 Y144.02 E43.91634
G1 X186.618 Y145.142 E43.93858
G1 X185.024 Y145.996 E43.96126
G1 X183.251 Y146.525 E43.98446
G1 X181.498 Y146.68 E44.00653
G1 X51.092 Y146.659 E45.64187
G1 X49.696 Y146.523 E45.65946
G1 X47.977 Y145.997 E45.682
G1 X46.354 Y145.124 E45.70511
G1 X45.009 Y144.015 E45.72697
G1 X43.862 Y142.624 E45.74958
G1 X42.996 Y141 E45.77266
G1 X42.475 Y139.25 E45.79556
G1 X42.32 Y137.5 E45.81759
G1 X42.341 Y77.092 E46.57513
G1 X42.477 Y75.697 E46.59271
G1 X43.002 Y73.975 E46.61528
G1 X43.882 Y72.342 E46.63855
G1 X44.999 Y70.988 E46.66056
G1 X46.382 Y69.858 E46.68295
G0 F15000 X46.604 Y70.193
G1 F1800 X48.133 Y69.374 E46.70471
G1 X49.824 Y68.87 E46.72683
G1 X51.502 Y68.72 E46.74796
G1 X181.498 Y68.72 E48.37816
G1 X183.203 Y68.871 E48.39962
G1 X184.886 Y69.378 E48.42167
G1 X186.42 Y70.209 E48.44354
G1 X187.735 Y71.294 E48.46492
G1 X188.807 Y72.604 E48.48615
G1 X189.627 Y74.134 E48.50792
G1 X190.13 Y75.822 E48.53001
G1 X190.28 Y77.5 E48.55113
G1 X190.28 Y96.157 E48.7851
G1 X189.942 Y97.304 E48.8001
G1 X188.871 Y98.406 E48.81937
G1 X188.048 Y98.922 E48.83155
G1 X186.834 Y99.28 E48.84742
G1 X178.98 Y99.28 E48.94591
G1 X178.98 Y102.421 E48.9853
G1 X178.573 Y103.606 E49.00101
G1 X177.472 Y104.805 E49.02143
G1 X176.097 Y105.407 E49.04025
G1 X175.588 Y105.493 E49.04672
G1 X176.471 Y105.595 E49.05787
G1 X177.256 Y105.92 E49.06852
G1 X178.496 Y107.352 E49.09228
G1 X178.98 Y108.902 E49.11264
G1 X178.98 Y111.72 E49.14798
G1 X187.153 Y111.72 E49.25047
G1 X188.297 Y112.057 E49.26543
G1 X189.399 Y113.12 E49.28463
G1 X189.921 Y113.949 E49.29692
G1 X190.28 Y115.166 E49.31283
G1 X190.261 Y137.869 E49.59753
G1 X190.129 Y139.22 E49.61455
G1 X189.632 Y140.851 E49.63594
G1 X188.78 Y142.436 E49.6585
G1 X187.709 Y143.735 E49.67962
G1 X186.396 Y144.807 E49.70087
G1 X184.867 Y145.626 E49.72262
G1 X183.176 Y146.13 E49.74475
G1 X181.498 Y146.28 E49.76588
G1 X51.131 Y146.261 E51.40073
G1 X49.778 Y146.129 E51.41778
G1 X48.13 Y145.625 E51.43939
G1 X46.578 Y144.79 E51.46149
G1 X45.296 Y143.733 E51.48232
G1 X44.194 Y142.397 E51.50404
G1 X43.367 Y140.846 E51.52608
G1 X42.87 Y139.175 E51.54795
G1 X42.72 Y137.5 E51.56904
G1 X42.739 Y77.131 E52.32609
G1 X42.871 Y75.778 E52.34313
G1 X43.374 Y74.128 E52.36477
G1 X44.214 Y72.569 E52.38697
G1 X45.285 Y71.271 E52.40808
G1 X46.604 Y70.193 E52.42944
G0 F15000 X46.826 Y70.528
G1 F1800 X48.29 Y69.744 E52.45026
G1 X49.9 Y69.264 E52.47133
G1 X51.502 Y69.12 E52.4915
G1 X181.498 Y69.12 E54.1217
G1 X183.124 Y69.265 E54.14217
G1 X184.732 Y69.75 E54.16323
